X:123
T:Reel,A. RH.123
R:Strathspey
S:Rev.R.Harrison’s MS,c1815,Cumbria
O:England
A:Temple Sowerby,Cumbria
Z:vmp.Simon Wilson. Review PJH, 2008.
M:C|
L:1/8
Q:1/2=60
K:Bb
D<GGA B<cdf|\
A<Fc<F d<Fc<F|D<GGA B<cdg|fdcA G2G2:|!
g>agd g>abg|f>dcB AFcA|g>agd g>abg|fdcA G2G2|!
g>agd g>abg|fdcB AFcA|B>dGA Bcdf|fdcA G2G2|]

